!!!OTL: 708. Der gefangene Landsknecht.
!!!COM: Volksweise
!!!ARE: Europa, Mitteleuropa, Deutschland, Rheinland, Westfalen
!!!SCT: B0708
!!!TXL: @@DE
!!!YEM: Copyright 1995, estate of Helmut Schaffrath.
**kern	**text
*ICvox	*
*Ivox	*
*clefG2	*
*M4/4	*
*met(c)	*
*k[b-]	*
*F:	*
!LO:TX:a:t=Schrittmäſſig.	!
{8fL	Ein
8aJ	.
=1	=1
4.cc	Landsknecht
8dd	.
4cc	ward
4b-	ge-
=2	=2
(4.a	-fan-
8b-)	.
4cc}	-gen
{4cc	nach
=3	=3
4dd	ei-
4cc	-nem
4b-	blut'gen
4a	.
=4	=4
2g	Straus,
4r}	.
{8fL	da
8aJ	.
=5	=5
4cc	führten
4cc	.
4cc	ſie
4ff	im
=6	=6
4.dd	A-
8b-	-bendroth
4b-}	.
{4b-	ʒum
=7	=7
4a	Galgen
4a	.
4g	ihn
4g	hin-
=8	=8
8fL	-aus,
8g	.
8a	.
8b-J	.
4.cc}	.
{8b-	ʒum
=9	=9
4a	Galgen
4a	.
4g	ihn
4g	hin-
=10	=10
2f	-aus.
4r}	.
==	==
!!!AGN: Scherz - Lied
!!!GTL: Scherzlieder und Gemischtes
!!!ONB: ESAC (Essen Associative Code) Database: BOEHME
!!!AMT: simple quadruple
!!!AIN: vox
!!!EED: Helmut Schaffrath
!!!EEV: 1.0
!!@@COMMENT:"Mündlich von Soldaten am Rhein und Weſtfalen. Auch gedr. in Kernlieder des d. Soldaten"
!!Nr. 56. Jſt das Gedicht vielleicht von Hoffmann v. Fallersleben und ſteht es in ſeinen "Lands-
!!knechtsliedern"? Letʒteres Buch war mit nicht ʒur Hand."
!!@@END:
!!!Text: H. von Fallersleben (?)
!!!URL-scan: https://archive.org/details/BoehmeVtLieder1895/page/n555/mode/2up
!!!ENC: Anna Maria Matuszewska
!!!EEV: 2024/17/07
*-	*-
